src/assets/icons/upload.svg

<svg width="14" height="14" viewBox="0 0 14 14" fill="none" xmlns="http://www.w3.org/2000/svg">
<g id="upload">
<g clip-path="url(#clip0_156_4621)">
<path id="Vector" fill-rule="evenodd" clip-rule="evenodd" d="M7.22967 0.0455273C7.15893 0.0161913 7.08135 0 7 0C6.91865 0 6.84107 0.0161913 6.77033 0.0455273C6.69956 0.0748072 6.63326 0.11821 6.57574 0.175736L3.37574 3.37574C3.14142 3.61005 3.14142 3.98995 3.37574 4.22426C3.61005 4.45858 3.98995 4.45858 4.22426 4.22426L6.4 2.04853V9.4C6.4 9.73137 6.66863 10 7 10C7.33137 10 7.6 9.73137 7.6 9.4V2.04853L9.77574 4.22426C10.0101 4.45858 10.3899 4.45858 10.6243 4.22426C10.8586 3.98995 10.8586 3.61005 10.6243 3.37574L7.42426 0.175736C7.36674 0.11821 7.30044 0.0748072 7.22967 0.0455273ZM0.6 8.8C0.931371 8.8 1.2 9.06863 1.2 9.4V11.8C1.2 12.4165 1.6354 12.8 2.024 12.8H11.976C12.3646 12.8 12.8 12.4165 12.8 11.8V9.4C12.8 9.06863 13.0686 8.8 13.4 8.8C13.7314 8.8 14 9.06863 14 9.4V11.8C14 12.9435 13.1554 14 11.976 14H2.024C0.844599 14 0 12.9435 0 11.8V9.4C0 9.06863 0.268629 8.8 0.6 8.8Z" fill="black"/>
</g>
</g>
<defs>
<clipPath id="clip0_156_4621">
<rect width="14" height="14" fill="white"/>
</clipPath>
</defs>
</svg>

<svg xmlns="http://www.w3.org/2000/svg" fill="none" viewBox="0 0 14 14"><g clip-path="url(#a)"><path fill="#000" fill-rule="evenodd" d="M7.23.046a.6.6 0 0 0-.654.13l-3.2 3.2a.6.6 0 1 0 .848.848L6.4 2.05V9.4a.6.6 0 0 0 1.2 0V2.049l2.176 2.175a.6.6 0 0 0 .848-.848l-3.2-3.2a.6.6 0 0 0-.194-.13M.6 8.8a.6.6 0 0 1 .6.6v2.4c0 .616.435 1 .824 1h9.952c.389 0 .824-.384.824-1V9.4a.6.6 0 1 1 1.2 0v2.4c0 1.143-.845 2.2-2.024 2.2H2.024C.844 14 0 12.944 0 11.8V9.4a.6.6 0 0 1 .6-.6" clip-rule="evenodd"/></g><defs><clipPath id="a"><path fill="#fff" d="M0 0h14v14H0z"/></clipPath></defs></svg>
